pix_core/e/manage_files.svg

<svg preserveAspectRatio="xMinYMid meet" viewBox="0 0 640 512" xmlns="http://www.w3.org/2000/svg"><path d="m128 0c-35.3 0-64 28.7-64 64v224h-44.8c-10.6 0-19.2 8.6-19.2 19.2 0 42.4 34.4 76.8 76.8 76.8h243.2v-96h-192v-224h320v32h64v-32c0-35.3-28.7-64-64-64zm384 128h-112c-26.5 0-48 21.5-48 48v288c0 26.5 21.5 48 48 48h192c26.5 0 48-21.5 48-48v-208h-96c-17.7 0-32-14.3-32-32zm32 0v96h96z" fill="#fff"/></svg>

<svg xmlns="http://www.w3.org/2000/svg" viewBox="0 0 640 512" preserveAspectRatio="xMinYMid meet"><!--!Font Awesome Free 6.5.2 by @fontawesome - https://fontawesome.com License - https://fontawesome.com/license/free Copyright 2024 Fonticons, Inc.--><path fill="#fff" d="M128 0C92.7 0 64 28.7 64 64V288H19.2C8.6 288 0 296.6 0 307.2C0 349.6 34.4 384 76.8 384H320V288H128V64H448V96h64V64c0-35.3-28.7-64-64-64H128zM512 128H400c-26.5 0-48 21.5-48 48V464c0 26.5 21.5 48 48 48H592c26.5 0 48-21.5 48-48V256H544c-17.7 0-32-14.3-32-32V128zm32 0v96h96l-96-96z"/></svg>
